X: 24177
T: Lord Drummond
R: reel
M: 4/4
K: Dmajor
Addc B2 Ad|BABd edef|Addc B2 AF|EDEF D3 z:|
A2 AF DEFA|G2 GF EFGB|A2 AF DEFA|GFED E3 z:|

